X: 20242
M: C
L: 1/8
K: G
|:\
g2g>g g2 a/g/f/e/ | d2B>B B2d>B | c>ce>c B>Bd>B | A2d>d ddef |\
g2g>g g2 a/g/f/e/ | d2B>B B2d>B | (3(ced) (3(cBA) G2F2 | G2G>G "^Fine"G4 :|
[g2G2][gG]>[gG] [g2G2][a2A2] | [bB]>[bB][d'd]>[d'd] [bB]>[bB] [gG]>[gG] | d2d>d dde"^D.C>"f |]


